Obsidian-SemiLight/actions/24s/transform-shear-up.svg

<svg viewBox="0 0 24 24" xmlns="http://www.w3.org/2000/svg"><path d="m4 4v1 11 1h5v-1h-4v-11h8v2h1v-2-1h-1zm6 4v1 9 1l9 .900391 1 .099609v-1-9-1l-9-.9003906zm1 1.0996094 8 .8007812v9.0000004l-8-.800782z" fill="#4d4d4d"/></svg>

<svg xmlns="http://www.w3.org/2000/svg" viewBox="0 0 24 24">
  <defs id="defs3051">
    <style type="text/css" id="current-color-scheme">
      .ColorScheme-Text {
        color:#4d4d4d;
      }
      </style>
  </defs>
 <path style="fill:currentColor;fill-opacity:1;stroke:none" 
     d="M 4 4 L 4 5 L 4 16 L 4 17 L 9 17 L 9 16 L 5 16 L 5 5 L 13 5 L 13 7 L 14 7 L 14 5 L 14 4 L 13 4 L 4 4 z M 10 8 L 10 9 L 10 18 L 10 19 L 19 19.900391 L 20 20 L 20 19 L 20 10 L 20 9 L 11 8.0996094 L 10 8 z M 11 9.0996094 L 19 9.9003906 L 19 18.900391 L 11 18.099609 L 11 9.0996094 z "
     class="ColorScheme-Text"
     />
</svg>
